lib/preview/nrk-logo-preview-nrk-p3-with-bg.svg

<svg width="71" height="24" viewBox="0 0 71 24" fill="none" xmlns="http://www.w3.org/2000/svg">
<rect width="71" height="24" fill="#FFE100"/>
<path d="M52.3374 6.00497H48.6362C48.6362 6.00497 50.7394 9.45753 50.7631 9.50099C50.8424 9.60083 50.8866 9.72395 50.8891 9.8514C50.8916 9.97885 50.8522 10.1036 50.7769 10.2065L48.6362 13.7155H52.338C52.338 13.7155 54.1231 10.7965 54.3672 10.3913C54.483 10.2361 54.5447 10.0471 54.543 9.85347C54.5412 9.6598 54.476 9.47205 54.3573 9.31897C54.094 8.87058 54.0935 8.87087 52.3374 6.00497Z" fill="black"/>
<path d="M48.158 6.00502H44.8615V17.9983H48.158V6.00502Z" fill="black"/>
<path d="M63.9308 7.99186C63.8064 7.77966 62.7047 6.00497 62.7047 6.00497H54.782L56.5127 8.90783H60.6856L58.9643 11.7297L60.8832 14.9537L59.0312 17.9974H62.4135C62.9573 17.1079 63.7703 15.732 63.9401 15.4501C64.0566 15.2943 64.1187 15.1045 64.117 14.91C64.1152 14.7155 64.0496 14.5269 63.9302 14.3732C63.7609 14.0843 62.8551 12.6477 62.3139 11.7633C62.3139 11.7633 63.7703 9.35002 63.9401 9.06811C64.0566 8.91242 64.1187 8.72283 64.117 8.52842C64.1153 8.33401 64.0499 8.14552 63.9308 7.99186Z" fill="black"/>
<path d="M56.3101 12.1194C55.7886 12.9711 54.9166 14.3984 54.7532 14.6766C54.6382 14.8246 54.575 15.0062 54.5733 15.1936C54.5716 15.3811 54.6314 15.5638 54.7436 15.7139C54.9073 15.9854 55.786 17.424 56.3101 18.2818C56.8338 17.4248 57.7128 15.9862 57.8762 15.7139C57.9884 15.5638 58.0482 15.3811 58.0465 15.1937C58.0449 15.0063 57.9818 14.8247 57.8669 14.6766C57.7035 14.3984 56.8313 12.9711 56.3101 12.1194Z" fill="black"/>
<path d="M6.00427 18V6.00112H9.94146V18H6.00427ZM15.2981 7.91081L17.5623 18H13.2534L10.5498 6.00112H12.9664C13.5206 5.99393 14.0583 6.18928 14.4788 6.55042C14.8999 6.89641 15.1892 7.37673 15.2981 7.91081ZM18.1538 18V6.00112H22.091V18H18.1538ZM25.0647 10.5641C24.6405 10.5683 24.223 10.4573 23.8568 10.243C23.4955 10.0342 23.1954 9.73399 22.9865 9.37263C22.7721 9.00636 22.661 8.58879 22.6652 8.16435C22.6604 7.74249 22.7715 7.32741 22.9865 6.96446C23.1976 6.60702 23.4974 6.31012 23.8568 6.10255C24.2231 5.88853 24.6405 5.77755 25.0647 5.78141C25.4865 5.77687 25.9014 5.88796 26.2645 6.10255C26.6203 6.31194 26.9169 6.60859 27.1263 6.96446C27.3411 7.32751 27.4522 7.74252 27.4476 8.16435C27.4515 8.58876 27.3405 9.00626 27.1263 9.37263C26.9191 9.73241 26.6222 10.0323 26.2645 10.243C25.9014 10.458 25.4862 10.5691 25.0642 10.5641H25.0647ZM28.0559 18V6.00112H31.9934V18H28.0559ZM36.978 12.5583C36.9891 12.5699 37.0735 12.7079 37.2314 12.9723C37.3893 13.2367 37.5949 13.5747 37.8482 13.9863C38.1017 14.3977 38.3692 14.8343 38.6506 15.296C38.932 15.7578 39.1969 16.1944 39.4451 16.6058C39.6924 17.0172 39.974 17.482 40.29 18H35.9641C35.6936 17.5606 35.4484 17.1635 35.2288 16.8086C35.0091 16.4537 34.7756 16.0706 34.5281 15.6594C34.2801 15.2485 34.0349 14.8486 33.7925 14.4595C33.5501 14.0704 33.3418 13.7296 33.1675 13.4371C32.9926 13.1443 32.8714 12.9472 32.8039 12.8456C32.6368 12.5935 32.5379 12.3023 32.517 12.0006C32.5337 11.711 32.6269 11.431 32.787 11.1891C32.8546 11.0765 32.9786 10.8765 33.1588 10.5892C33.3391 10.3019 33.5503 9.96108 33.7925 9.56675C34.0347 9.17242 34.2799 8.76963 34.5281 8.35841C34.7763 7.94718 35.0098 7.56127 35.2288 7.20074C35.4488 6.84058 35.6939 6.44062 35.9641 6.00085H40.29L36.9439 11.4595C36.8404 11.6216 36.782 11.8084 36.7749 12.0006C36.786 12.2024 36.8565 12.3963 36.9774 12.5583H36.978Z" fill="black"/>
</svg>

<svg xmlns="http://www.w3.org/2000/svg" viewBox="0 0 71 24"><path fill="#FFE100" d="M0 0h71v24H0z"/><path fill="#000" d="M52.337 6.005h-3.7s2.102 3.453 2.126 3.496a.582.582 0 0 1 .014.706l-2.14 3.508h3.701s1.785-2.918 2.03-3.324a.886.886 0 0 0-.01-1.072c-.264-.448-.264-.448-2.02-3.314ZM48.158 6.005h-3.297v11.993h3.297V6.005ZM63.93 7.992a324.062 324.062 0 0 0-1.225-1.987h-7.923l1.73 2.903h4.174l-1.722 2.822 1.92 3.224-1.853 3.043h3.383c.543-.89 1.356-2.265 1.526-2.547a.889.889 0 0 0-.01-1.077c-.17-.289-1.075-1.725-1.616-2.61l1.626-2.695a.888.888 0 0 0-.01-1.076Z"/><path fill="#000" d="M56.31 12.12c-.521.851-1.393 2.278-1.557 2.557a.855.855 0 0 0-.01 1.037c.164.271 1.043 1.71 1.567 2.568.524-.857 1.403-2.296 1.566-2.568a.856.856 0 0 0-.01-1.037 392.387 392.387 0 0 0-1.556-2.558ZM6.004 18V6.001h3.937V18H6.004Zm9.294-10.09L17.562 18h-4.309L10.55 6.001h2.416a2.276 2.276 0 0 1 1.513.55c.42.345.71.826.82 1.36ZM18.154 18V6.001h3.937V18h-3.937Zm6.91-7.436a2.382 2.382 0 0 1-2.4-2.4 2.303 2.303 0 0 1 .323-1.2 2.411 2.411 0 0 1 3.278-.861c.355.209.652.506.861.861.215.364.326.779.322 1.2a2.4 2.4 0 0 1-1.183 2.079 2.302 2.302 0 0 1-1.2.321ZM28.057 18V6.001h3.937V18h-3.937Zm8.922-5.442c.011.012.096.15.253.414.158.265.364.603.617 1.014a315.936 315.936 0 0 1 1.597 2.62c.247.411.529.876.845 1.394h-4.326c-.27-.44-.516-.837-.735-1.191-.22-.355-.453-.738-.7-1.15-.249-.41-.494-.81-.737-1.2-.242-.389-.45-.73-.625-1.022-.174-.293-.296-.49-.363-.591a1.748 1.748 0 0 1-.287-.845c.017-.29.11-.57.27-.812.068-.113.192-.313.372-.6s.391-.628.633-1.022c.243-.395.488-.797.736-1.209l.7-1.157.736-1.2h4.326l-3.346 5.458a1.08 1.08 0 0 0-.17.542c.012.201.082.395.203.557h.001Z"/></svg>
